; G-Code generated by Simplify3D(R) Version 4.1.2
; Apr 7, 2024 at 1:20:06 PM
; Settings Summary
;   processName,Process1
;   applyToModels,Part4
;   profileName,Default (modified)
;   profileVersion,2017-03-01 08:00:00
;   baseProfile,
;   printMaterial,PLA
;   printQuality,High
;   printExtruders,
;   extruderName,Primary Extruder
;   extruderToolheadNumber,1
;   extruderDiameter,0.35
;   extruderAutoWidth,0
;   extruderWidth,0.4
;   extrusionMultiplier,0.9
;   extruderUseRetract,1
;   extruderRetractionDistance,6
;   extruderExtraRestartDistance,0
;   extruderRetractionZLift,0
;   extruderRetractionSpeed,1800
;   extruderUseCoasting,0
;   extruderCoastingDistance,0.2
;   extruderUseWipe,0
;   extruderWipeDistance,5
;   primaryExtruder,0
;   layerHeight,0.1
;   topSolidLayers,4
;   bottomSolidLayers,4
;   perimeterOutlines,2
;   printPerimetersInsideOut,1
;   startPointOption,2
;   startPointOriginX,0
;   startPointOriginY,0
;   sequentialIslands,0
;   spiralVaseMode,0
;   firstLayerHeightPercentage,100
;   firstLayerWidthPercentage,100
;   firstLayerUnderspeed,0.35
;   useRaft,0
;   raftExtruder,0
;   raftTopLayers,3
;   raftBaseLayers,2
;   raftOffset,3
;   raftSeparationDistance,0.14
;   raftTopInfill,100
;   aboveRaftSpeedMultiplier,0.3
;   useSkirt,1
;   skirtExtruder,0
;   skirtLayers,2
;   skirtOutlines,2
;   skirtOffset,2
;   usePrimePillar,0
;   primePillarExtruder,999
;   primePillarWidth,12
;   primePillarLocation,7
;   primePillarSpeedMultiplier,1
;   useOozeShield,0
;   oozeShieldExtruder,999
;   oozeShieldOffset,2
;   oozeShieldOutlines,1
;   oozeShieldSidewallShape,1
;   oozeShieldSidewallAngle,30
;   oozeShieldSpeedMultiplier,1
;   infillExtruder,0
;   internalInfillPattern,Rectilinear
;   externalInfillPattern,Rectilinear
;   infillPercentage,20
;   outlineOverlapPercentage,15
;   infillExtrusionWidthPercentage,100
;   minInfillLength,5
;   infillLayerInterval,1
;   internalInfillAngles,45,-45
;   overlapInternalInfillAngles,0
;   externalInfillAngles,45,-45
;   generateSupport,1
;   supportExtruder,0
;   supportInfillPercentage,40
;   supportExtraInflation,0
;   supportBaseLayers,0
;   denseSupportExtruder,0
;   denseSupportLayers,0
;   denseSupportInfillPercentage,70
;   supportLayerInterval,1
;   supportHorizontalPartOffset,0.3
;   supportUpperSeparationLayers,1
;   supportLowerSeparationLayers,1
;   supportType,0
;   supportGridSpacing,4
;   maxOverhangAngle,45
;   supportAngles,0
;   temperatureName,Primary Extruder
;   temperatureNumber,0
;   temperatureSetpointCount,1
;   temperatureSetpointLayers,1
;   temperatureSetpointTemperatures,205
;   temperatureStabilizeAtStartup,1
;   temperatureHeatedBed,0
;   fanLayers,1,2
;   fanSpeeds,0,100
;   blipFanToFullPower,0
;   adjustSpeedForCooling,1
;   minSpeedLayerTime,15
;   minCoolingSpeedSlowdown,20
;   increaseFanForCooling,0
;   minFanLayerTime,45
;   maxCoolingFanSpeed,100
;   increaseFanForBridging,0
;   bridgingFanSpeed,100
;   use5D,1
;   relativeEdistances,0
;   allowEaxisZeroing,1
;   independentExtruderAxes,0
;   includeM10123,0
;   stickySupport,1
;   applyToolheadOffsets,0
;   gcodeXoffset,0
;   gcodeYoffset,0
;   gcodeZoffset,0
;   overrideMachineDefinition,1
;   machineTypeOverride,0
;   strokeXoverride,600
;   strokeYoverride,600
;   strokeZoverride,800
;   originOffsetXoverride,0
;   originOffsetYoverride,0
;   originOffsetZoverride,0
;   homeXdirOverride,-1
;   homeYdirOverride,-1
;   homeZdirOverride,-1
;   flipXoverride,1
;   flipYoverride,-1
;   flipZoverride,1
;   toolheadOffsets,0,0|0,0|0,0|0,0|0,0|0,0
;   overrideFirmwareConfiguration,0
;   firmwareTypeOverride,RepRap (Marlin/Repetier/Sprinter)
;   GPXconfigOverride,r2
;   baudRateOverride,115200
;   overridePrinterModels,0
;   printerModelsOverride
;   startingGcode,G28 ; home all axes
;   layerChangeGcode,
;   retractionGcode,
;   toolChangeGcode,
;   endingGcode,M104 S0 ; turn off extruder,M140 S0 ; turn off bed,M84 ; disable motors
;   exportFileFormat,gcode
;   celebration,0
;   celebrationSong,Random Song
;   postProcessing,
;   defaultSpeed,3600
;   outlineUnderspeed,0.5
;   solidInfillUnderspeed,0.8
;   supportUnderspeed,0.8
;   rapidXYspeed,4800
;   rapidZspeed,1000
;   minBridgingArea,50
;   bridgingExtraInflation,0
;   bridgingExtrusionMultiplier,1
;   bridgingSpeedMultiplier,1
;   useFixedBridgingAngle,0
;   fixedBridgingAngle,0
;   applyBridgingToPerimeters,0
;   filamentDiameters,1.75|1.75|1.75|1.75|1.75|1.75
;   filamentPricesPerKg,46|46|46|46|46|46
;   filamentDensities,1.25|1.25|1.25|1.25|1.25|1.25
;   useMinPrintHeight,0
;   minPrintHeight,0
;   useMaxPrintHeight,0
;   maxPrintHeight,0
;   useDiaphragm,0
;   diaphragmLayerInterval,20
;   robustSlicing,1
;   mergeAllIntoSolid,0
;   onlyRetractWhenCrossingOutline,1
;   retractBetweenLayers,1
;   useRetractionMinTravel,0
;   retractionMinTravel,3
;   retractWhileWiping,0
;   onlyWipeOutlines,1
;   avoidCrossingOutline,0
;   maxMovementDetourFactor,3
;   toolChangeRetractionDistance,12
;   toolChangeExtraRestartDistance,-0.5
;   toolChangeRetractionSpeed,600
;   externalThinWallType,0
;   internalThinWallType,2
;   thinWallAllowedOverlapPercentage,10
;   singleExtrusionMinLength,1
;   singleExtrusionMinPrintingWidthPercentage,50
;   singleExtrusionMaxPrintingWidthPercentage,200
;   singleExtrusionEndpointExtension,0.2
;   horizontalSizeCompensation,0
G90
M82
M106 S0
M104 S205 T0
M109 S205 T0
G28 ; home all axes
; process Process1
; layer 1, Z = 0.100
T1
G92 E0.0000
G1 E-6.0000 F1800
; feature skirt
; tool H0.100 W0.400
G1 Z0.100 F1000
G1 X292.400 Y293.923 F4800
G1 E0.0000 F1800
G92 E0.0000
G1 X293.923 Y292.400 E0.0322 F1260
G1 X306.077 Y292.400 E0.2141
G1 X307.600 Y293.923 E0.2464
G1 X307.600 Y306.077 E0.4283
G1 X306.077 Y307.600 E0.4605
G1 X293.923 Y307.600 E0.6424
G1 X292.400 Y306.077 E0.6747
G1 X292.400 Y293.923 E0.8566
G92 E0.0000
G1 E-6.0000 F1800
G1 X292.800 Y294.089 F4800
G1 E0.0000 F1800
G92 E0.0000
G1 X294.089 Y292.800 E0.0273 F1260
G1 X305.911 Y292.800 E0.2042
G1 X307.200 Y294.089 E0.2315
G1 X307.200 Y305.911 E0.4085
G1 X305.911 Y307.200 E0.4357
G1 X294.089 Y307.200 E0.6127
G1 X292.800 Y305.911 E0.6400
G1 X292.800 Y294.089 E0.8169
G92 E0.0000
G1 E-6.0000 F1800
; feature inner perimeter
G1 X295.600 Y295.600 F4800
G1 E0.0000 F1800
G92 E0.0000
G1 X304.400 Y295.600 E0.1317 F945
G1 X304.400 Y304.400 E0.2634
G1 X295.600 Y304.400 E0.3951
G1 X295.600 Y295.600 E0.5268
; feature outer perimeter
G1 X295.200 Y295.200 F4800
G92 E0.0000
G1 X304.800 Y295.200 E0.1437 F630
G1 X304.800 Y304.800 E0.2874
G1 X295.200 Y304.800 E0.4311
G1 X295.200 Y295.200 E0.5747
; feature solid layer
G1 X303.860 Y295.940 F4800
G92 E0.0000
G1 X304.060 Y296.140 E0.0042 F1008
G1 X304.060 Y296.706 E0.0127
G1 X303.294 Y295.940 E0.0289
G1 X302.728 Y295.940 E0.0374
G1 X304.060 Y297.272 E0.0656
G1 X304.060 Y297.837 E0.0740
G1 X302.163 Y295.940 E0.1142
G1 X301.597 Y295.940 E0.1227
G1 X304.060 Y298.403 E0.1748
G1 X304.060 Y298.969 E0.1833
G1 X301.031 Y295.940 E0.2474
G1 X300.465 Y295.940 E0.2559
G1 X304.060 Y299.535 E0.3319
G1 X304.060 Y300.100 E0.3404
G1 X299.900 Y295.940 E0.4285
G1 X299.334 Y295.940 E0.4369
G1 X304.060 Y300.666 E0.5370
G1 X304.060 Y301.232 E0.5454
G1 X298.768 Y295.940 E0.6574
G1 X298.203 Y295.940 E0.6659
G1 X304.060 Y301.797 E0.7899
G1 X304.060 Y302.363 E0.7983
G1 X297.637 Y295.940 E0.9343
G1 X297.071 Y295.940 E0.9428
G1 X304.060 Y302.929 E1.0907
G1 X304.060 Y303.494 E1.0992
G1 X296.506 Y295.940 E1.2591
G1 X295.940 Y295.940 E1.2675
G1 X304.060 Y304.060 E1.4394
G1 X303.494 Y304.060 E1.4479
G1 X295.940 Y296.506 E1.6078
G1 X295.940 Y297.071 E1.6162
G1 X302.929 Y304.060 E1.7641
G1 X302.363 Y304.060 E1.7726
G1 X295.940 Y297.637 E1.9086
G1 X295.940 Y298.203 E1.9170
G1 X301.797 Y304.060 E2.0410
G1 X301.232 Y304.060 E2.0495
G1 X295.940 Y298.768 E2.1615
G1 X295.940 Y299.334 E2.1700
G1 X300.666 Y304.060 E2.2700
G1 X300.100 Y304.060 E2.2784
G1 X295.940 Y299.900 E2.3665
G1 X295.940 Y300.465 E2.3750
G1 X299.535 Y304.060 E2.4511
G1 X298.969 Y304.060 E2.4595
G1 X295.940 Y301.031 E2.5236
G1 X295.940 Y301.597 E2.5321
G1 X298.403 Y304.060 E2.5842
G1 X297.837 Y304.060 E2.5927
G1 X295.940 Y302.163 E2.6329
G1 X295.940 Y302.728 E2.6413
G1 X297.272 Y304.060 E2.6695
G1 X296.706 Y304.060 E2.6780
G1 X295.940 Y303.294 E2.6942
G1 X295.940 Y303.860 E2.7027
G1 X296.140 Y304.060 E2.7069
G92 E0.0000
G1 E-6.0000 F1800
; layer 2, Z = 0.200
M106 S255
; feature skirt
G1 Z0.200 F1000
G1 X293.923 Y307.600 F4800
G1 E0.0000 F1800
G92 E0.0000
G1 X292.400 Y306.077 E0.0322 F1399
G1 X292.400 Y293.923 E0.2141
G1 X293.923 Y292.400 E0.2464
G1 X306.077 Y292.400 E0.4283
G1 X307.600 Y293.923 E0.4605
G1 X307.600 Y306.077 E0.6424
G1 X306.077 Y307.600 E0.6747
G1 X293.923 Y307.600 E0.8566
G92 E0.0000
G1 E-6.0000 F1800
G1 X294.089 Y307.200 F4800
G1 E0.0000 F1800
G92 E0.0000
G1 X292.800 Y305.911 E0.0273 F1399
G1 X292.800 Y294.089 E0.2042
G1 X294.089 Y292.800 E0.2315
G1 X305.911 Y292.800 E0.4085
G1 X307.200 Y294.089 E0.4357
G1 X307.200 Y305.911 E0.6127
G1 X305.911 Y307.200 E0.6400
G1 X294.089 Y307.200 E0.8169
G92 E0.0000
G1 E-6.0000 F1800
; feature inner perimeter
G1 X295.600 Y304.400 F4800
G1 E0.0000 F1800
G92 E0.0000
G1 X295.600 Y295.600 E0.1317 F1049
G1 X304.400 Y295.600 E0.2634
G1 X304.400 Y304.400 E0.3951
G1 X295.600 Y304.400 E0.5268
; feature outer perimeter
G1 X295.200 Y304.800 F4800
G92 E0.0000
G1 X295.200 Y295.200 E0.1437 F700
G1 X304.800 Y295.200 E0.2874
G1 X304.800 Y304.800 E0.4311
G1 X295.200 Y304.800 E0.5747
; feature solid layer
G1 X295.940 Y296.140 F4800
G92 E0.0000
G1 X296.140 Y295.940 E0.0042 F1119
G1 X296.706 Y295.940 E0.0127
G1 X295.940 Y296.706 E0.0289
G1 X295.940 Y297.272 E0.0374
G1 X297.272 Y295.940 E0.0656
G1 X297.837 Y295.940 E0.0740
G1 X295.940 Y297.837 E0.1142
G1 X295.940 Y298.403 E0.1227
G1 X298.403 Y295.940 E0.1748
G1 X298.969 Y295.940 E0.1833
G1 X295.940 Y298.969 E0.2474
G1 X295.940 Y299.535 E0.2559
G1 X299.535 Y295.940 E0.3319
G1 X300.100 Y295.940 E0.3404
G1 X295.940 Y300.100 E0.4285
G1 X295.940 Y300.666 E0.4369
G1 X300.666 Y295.940 E0.5370
G1 X301.232 Y295.940 E0.5454
G1 X295.940 Y301.232 E0.6574
G1 X295.940 Y301.797 E0.6659
G1 X301.797 Y295.940 E0.7899
G1 X302.363 Y295.940 E0.7984
G1 X295.940 Y302.363 E0.9343
G1 X295.940 Y302.929 E0.9428
G1 X302.929 Y295.940 E1.0907
G1 X303.494 Y295.940 E1.0992
G1 X295.940 Y303.494 E1.2591
G1 X295.940 Y304.060 E1.2675
G1 X304.060 Y295.940 E1.4394
G1 X304.060 Y296.506 E1.4479
G1 X296.506 Y304.060 E1.6078
G1 X297.071 Y304.060 E1.6162
G1 X304.060 Y297.071 E1.7642
G1 X304.060 Y297.637 E1.7726
G1 X297.637 Y304.060 E1.9086
G1 X298.203 Y304.060 E1.9170
G1 X304.060 Y298.203 E2.0410
G1 X304.060 Y298.768 E2.0495
G1 X298.768 Y304.060 E2.1615
G1 X299.334 Y304.060 E2.1700
G1 X304.060 Y299.334 E2.2700
G1 X304.060 Y299.900 E2.2785
G1 X299.900 Y304.060 E2.3665
G1 X300.466 Y304.060 E2.3750
G1 X304.060 Y300.466 E2.4511
G1 X304.060 Y301.031 E2.4595
G1 X301.031 Y304.060 E2.5236
G1 X301.597 Y304.060 E2.5321
G1 X304.060 Y301.597 E2.5842
G1 X304.060 Y302.163 E2.5927
G1 X302.163 Y304.060 E2.6329
G1 X302.728 Y304.060 E2.6413
G1 X304.060 Y302.728 E2.6695
G1 X304.060 Y303.294 E2.6780
G1 X303.294 Y304.060 E2.6942
G1 X303.860 Y304.060 E2.7027
G1 X304.060 Y303.860 E2.7069
G92 E0.0000
G1 E-6.0000 F1800
; layer 3, Z = 0.300
; feature inner perimeter
G1 Z0.300 F1000
G1 X304.400 Y304.400 F4800
G1 E0.0000 F1800
G92 E0.0000
G1 X295.600 Y304.400 E0.1317 F1049
G1 X295.600 Y295.600 E0.2634
G1 X304.400 Y295.600 E0.3951
G1 X304.400 Y304.400 E0.5268
; feature outer perimeter
G1 X304.800 Y304.800 F4800
G92 E0.0000
G1 X295.200 Y304.800 E0.1437 F700
G1 X295.200 Y295.200 E0.2874
G1 X304.800 Y295.200 E0.4311
G1 X304.800 Y304.800 E0.5747
; feature solid layer
G1 X296.140 Y304.060 F4800
G92 E0.0000
G1 X295.940 Y303.860 E0.0042 F1119
G1 X295.940 Y303.294 E0.0127
G1 X296.706 Y304.060 E0.0289
G1 X297.272 Y304.060 E0.0374
G1 X295.940 Y302.728 E0.0656
G1 X295.940 Y302.163 E0.0740
G1 X297.837 Y304.060 E0.1142
G1 X298.403 Y304.060 E0.1227
G1 X295.940 Y301.597 E0.1748
G1 X295.940 Y301.031 E0.1833
G1 X298.969 Y304.060 E0.2474
G1 X299.535 Y304.060 E0.2559
G1 X295.940 Y300.465 E0.3319
G1 X295.940 Y299.900 E0.3404
G1 X300.100 Y304.060 E0.4285
G1 X300.666 Y304.060 E0.4369
G1 X295.940 Y299.334 E0.5370
G1 X295.940 Y298.768 E0.5454
G1 X301.232 Y304.060 E0.6574
G1 X301.797 Y304.060 E0.6659
G1 X295.940 Y298.203 E0.7899
G1 X295.940 Y297.637 E0.7983
G1 X302.363 Y304.060 E0.9343
G1 X302.929 Y304.060 E0.9428
G1 X295.940 Y297.071 E1.0907
G1 X295.940 Y296.506 E1.0992
G1 X303.494 Y304.060 E1.2591
G1 X304.060 Y304.060 E1.2675
G1 X295.940 Y295.940 E1.4394
G1 X296.506 Y295.940 E1.4479
G1 X304.060 Y303.494 E1.6078
G1 X304.060 Y302.929 E1.6162
G1 X297.071 Y295.940 E1.7642
G1 X297.637 Y295.940 E1.7726
G1 X304.060 Y302.363 E1.9086
G1 X304.060 Y301.797 E1.9170
G1 X298.203 Y295.940 E2.0410
G1 X298.768 Y295.940 E2.0495
G1 X304.060 Y301.232 E2.1615
G1 X304.060 Y300.666 E2.1700
G1 X299.334 Y295.940 E2.2700
G1 X299.900 Y295.940 E2.2785
G1 X304.060 Y300.100 E2.3665
G1 X304.060 Y299.535 E2.3750
G1 X300.465 Y295.940 E2.4511
G1 X301.031 Y295.940 E2.4595
G1 X304.060 Y298.969 E2.5236
G1 X304.060 Y298.403 E2.5321
G1 X301.597 Y295.940 E2.5842
G1 X302.163 Y295.940 E2.5927
G1 X304.060 Y297.837 E2.6329
G1 X304.060 Y297.272 E2.6413
G1 X302.728 Y295.940 E2.6695
G1 X303.294 Y295.940 E2.6780
G1 X304.060 Y296.706 E2.6942
G1 X304.060 Y296.140 E2.7027
G1 X303.860 Y295.940 E2.7069
G92 E0.0000
G1 E-6.0000 F1800
; layer 4, Z = 0.400
; feature inner perimeter
G1 Z0.400 F1000
G1 X304.400 Y295.600 F4800
G1 E0.0000 F1800
G92 E0.0000
G1 X304.400 Y304.400 E0.1317 F1049
G1 X295.600 Y304.400 E0.2634
G1 X295.600 Y295.600 E0.3951
G1 X304.400 Y295.600 E0.5268
; feature outer perimeter
G1 X304.800 Y295.200 F4800
G92 E0.0000
G1 X304.800 Y304.800 E0.1437 F700
G1 X295.200 Y304.800 E0.2874
G1 X295.200 Y295.200 E0.4311
G1 X304.800 Y295.200 E0.5747
; feature solid layer
G1 X304.060 Y303.860 F4800
G92 E0.0000
G1 X303.860 Y304.060 E0.0042 F1119
G1 X303.294 Y304.060 E0.0127
G1 X304.060 Y303.294 E0.0289
G1 X304.060 Y302.728 E0.0374
G1 X302.728 Y304.060 E0.0656
G1 X302.163 Y304.060 E0.0740
G1 X304.060 Y302.163 E0.1142
G1 X304.060 Y301.597 E0.1227
G1 X301.597 Y304.060 E0.1748
G1 X301.031 Y304.060 E0.1833
G1 X304.060 Y301.031 E0.2474
G1 X304.060 Y300.466 E0.2559
G1 X300.466 Y304.060 E0.3319
G1 X299.900 Y304.060 E0.3404
G1 X304.060 Y299.900 E0.4285
G1 X304.060 Y299.334 E0.4369
G1 X299.334 Y304.060 E0.5370
G1 X298.768 Y304.060 E0.5454
G1 X304.060 Y298.768 E0.6574
G1 X304.060 Y298.203 E0.6659
G1 X298.203 Y304.060 E0.7899
G1 X297.637 Y304.060 E0.7983
G1 X304.060 Y297.637 E0.9343
G1 X304.060 Y297.071 E0.9428
G1 X297.071 Y304.060 E1.0907
G1 X296.506 Y304.060 E1.0991
G1 X304.060 Y296.506 E1.2590
G1 X304.060 Y295.940 E1.2675
G1 X295.940 Y304.060 E1.4394
G1 X295.940 Y303.494 E1.4479
G1 X303.494 Y295.940 E1.6078
G1 X302.929 Y295.940 E1.6162
G1 X295.940 Y302.929 E1.7641
G1 X295.940 Y302.363 E1.7726
G1 X302.363 Y295.940 E1.9086
G1 X301.797 Y295.940 E1.9170
G1 X295.940 Y301.797 E2.0410
G1 X295.940 Y301.232 E2.0495
G1 X301.232 Y295.940 E2.1615
G1 X300.666 Y295.940 E2.1699
G1 X295.940 Y300.666 E2.2700
G1 X295.940 Y300.100 E2.2784
G1 X300.100 Y295.940 E2.3665
G1 X299.535 Y295.940 E2.3750
G1 X295.940 Y299.535 E2.4511
G1 X295.940 Y298.969 E2.4595
G1 X298.969 Y295.940 E2.5236
G1 X298.403 Y295.940 E2.5321
G1 X295.940 Y298.403 E2.5842
G1 X295.940 Y297.837 E2.5927
G1 X297.837 Y295.940 E2.6329
G1 X297.272 Y295.940 E2.6413
G1 X295.940 Y297.272 E2.6695
G1 X295.940 Y296.706 E2.6780
